!!!OTL: Birds' Courting Song
!!!ARE: United States of America; New England
!!!AMD: Pentatonic
**kern
=1-
*clefG2
*k[f#]
*M4/4
*MM180
{4g/
8e/L
8e/J
4e/
4d/
=2
8g/L
8g/J
8B/L
8B/J
2d/}
=3
{4g/
4e/
4e/
8d/L
8d/J
=4
4g/
4a/
2b/}
=5
{4b\
4dd\
8b\L
8b\J
4g/
=6
4a/
4b/
4d/}
8r
{8d/
=7
8e/L
8e/J
4e/
4b/
8b/L
8a/J
=8
4g/
4e/
2e/}
==
*-
